X: 3116
T: Beare Island
R: reel
M: 4/4
K: Edorian
|:EB^GB AGEe|dBcA Beec|d2 dd AFDF|(3GFE FD EDB,A,|
B,EEF GFGA|B2 GA Bdef|g2fg effe|dBAF E4:|
|:Beef fefd|B2AG FDED|Beef gefd|Be^df e2 ef|
edBc d3c|BcdB AFDF|G~B3 AFDF|(3GFE FD E4:|

